symbolic/64x64/apps/klines.svg

<svg xmlns="http://www.w3.org/2000/svg" width="64" height="64" version="1">
 <path style="opacity:0.2" d="m 4.0000004,56.200069 0,1.999971 c 0,1.549978 1.2495821,2.79996 2.80076,2.79996 L 57.20004,61 C 58.750017,61 60,59.750018 60,58.20004 l 0,-1.999971 c 0,1.549977 -1.249983,2.79996 -2.79996,2.79996 l -50.3992796,0 c -1.5503779,0 -2.79996,-1.249983 -2.79996,-2.79996 z"/>
 <rect style="fill:#4e91d9" width="56" height="56" x="4" y="4" rx="2.8" ry="2.8"/>
 <path style="opacity:0.2;fill:#ffffff" d="M 6.8007812 4 C 5.2496034 4 4 5.2496034 4 6.8007812 L 4 7.8027344 C 4 6.2515566 5.2496034 5.0019531 6.8007812 5.0019531 L 57.199219 5.0019531 C 58.749196 5.0019531 60 6.2515566 60 7.8027344 L 60 6.8007812 C 60 5.2496035 58.749196 4 57.199219 4 L 6.8007812 4 z"/>
 <g style="opacity:0.2" transform="matrix(1.9999714,0,0,1.9999714,5.760572e-5,1.0007436)">
  <circle cx="16" cy="-16" r="3" transform="scale(1,-1)"/>
  <circle cx="9" cy="-16" r="3" transform="scale(1,-1)"/>
  <circle cx="23" cy="-16" r="3" transform="scale(1,-1)"/>
  <circle cx="16" cy="-9" r="3" transform="scale(1,-1)"/>
  <circle cx="9" cy="-9" r="3" transform="scale(1,-1)"/>
  <circle cx="23" cy="-9" r="3" transform="scale(1,-1)"/>
  <circle cx="16" cy="-23" r="3" transform="scale(1,-1)"/>
  <circle cx="9" cy="-23" r="3" transform="scale(1,-1)"/>
  <circle cx="23" cy="-23" r="3" transform="scale(1,-1)"/>
 </g>
 <circle style="fill:#ffd060" cx="32" cy="-32" r="6" transform="scale(1,-1)"/>
 <circle style="fill:#ffd060" cx="45.999" cy="-18.001" r="6" transform="scale(1,-1)"/>
 <circle style="fill:#ffd060" cx="18" cy="-46" r="6" transform="scale(1,-1)"/>
 <g style="fill:#aaffff" transform="matrix(1.9999714,0,0,1.9999714,5.760572e-5,8.866e-4)">
  <circle cx="9" cy="-16" r="3" transform="scale(1,-1)"/>
  <circle cx="23" cy="-16" r="3" transform="scale(1,-1)"/>
  <circle cx="16" cy="-9" r="3" transform="scale(1,-1)"/>
  <circle cx="9" cy="-9" r="3" transform="scale(1,-1)"/>
  <circle cx="16" cy="-23" r="3" transform="scale(1,-1)"/>
  <circle cx="23" cy="-23" r="3" transform="scale(1,-1)"/>
 </g>
</svg>

<svg xmlns="http://www.w3.org/2000/svg" width="64" height="64" version="1"><path style="opacity:.2" d="M4 56.2v2C4 59.75 5.25 61 6.8 61h50.4c1.55 0 2.8-1.25 2.8-2.8v-2c0 1.55-1.25 2.8-2.8 2.8H6.8C5.25 59 4 57.75 4 56.2z"/><rect style="fill:#4e91d9" width="56" height="56" x="4" y="4" rx="2.8" ry="2.8"/><path style="opacity:.2;fill:#fff" d="M6.8 4C5.25 4 4 5.25 4 6.8v1.003c0-1.551 1.25-2.801 2.8-2.801h50.4c1.55 0 2.8 1.25 2.8 2.8V6.802C60 5.25 58.75 4 57.2 4H6.8z"/><g style="opacity:.2" transform="matrix(1.99997 0 0 -1.99997 0 1)"><circle cx="16" cy="-16" r="3"/><circle cx="9" cy="-16" r="3"/><circle cx="23" cy="-16" r="3"/><circle cx="16" cy="-9" r="3"/><circle cx="9" cy="-9" r="3"/><circle cx="23" cy="-9" r="3"/><circle cx="16" cy="-23" r="3"/><circle cx="9" cy="-23" r="3"/><circle cx="23" cy="-23" r="3"/></g><circle style="fill:#ffd060" cx="32" cy="-32" r="6" transform="scale(1 -1)"/><circle style="fill:#ffd060" cx="45.999" cy="-18.001" r="6" transform="scale(1 -1)"/><circle style="fill:#ffd060" cx="18" cy="-46" r="6" transform="scale(1 -1)"/><g style="fill:#aff" transform="matrix(1.99997 0 0 -1.99997 0 0)"><circle cx="9" cy="-16" r="3"/><circle cx="23" cy="-16" r="3"/><circle cx="16" cy="-9" r="3"/><circle cx="9" cy="-9" r="3"/><circle cx="16" cy="-23" r="3"/><circle cx="23" cy="-23" r="3"/></g></svg>
